<?xml version="1.0" encoding="UTF-8"?>
<map version="1.10" tiledversion="1.11.2" orientation="orthogonal" renderorder="right-down" width="30" height="20" tilewidth="16" tileheight="16" infinite="1" nextlayerid="2" nextobjectid="1">
 <editorsettings>
  <export target="../../../scenes/dungeon.tscn" format="tscn"/>
 </editorsettings>
 <tileset firstgid="1" source="../../../../../../../../tests/tiled/test.tsx"/>
 <layer id="1" name="Tile Layer 1" width="30" height="20">
  <data encoding="csv">
   <chunk x="0" y="-32" width="16" height="16">
0,0,0,0,0,0,0,0,0,0,0,0,0,0,0,0,
0,0,0,0,0,0,0,0,0,0,0,0,0,0,0,0,
0,0,0,0,0,0,0,0,0,0,0,0,0,0,0,0,
0,0,0,0,0,0,0,0,0,0,0,0,0,0,0,0,
0,0,0,0,0,0,0,0,0,0,0,0,0,0,0,0,
0,0,0,0,0,0,0,0,0,0,0,0,0,0,0,0,
0,0,0,0,0,0,0,0,0,0,45,45,45,45,45,43,
0,0,0,0,0,0,0,0,0,0,45,45,45,45,45,43,
0,0,0,0,0,0,0,0,0,0,45,45,45,45,45,43,
0,0,0,0,0,0,0,0,0,0,45,45,45,45,45,43,
0,0,0,0,0,0,0,0,0,0,45,45,45,45,45,43,
0,0,0,0,0,0,0,0,0,0,45,45,45,45,45,43,
0,0,0,0,0,0,0,0,0,0,45,45,45,45,45,91,
0,0,0,0,0,0,0,0,0,0,45,45,45,45,45,43,
0,0,0,0,0,0,0,0,0,0,0,0,0,0,45,43,
0,0,0,0,0,0,0,0,0,0,0,0,0,0,45,43
</chunk>
   <chunk x="16" y="-32" width="16" height="16">
0,0,0,0,0,0,0,0,0,0,0,0,0,0,0,0,
0,0,0,0,0,0,0,0,0,0,0,0,0,0,0,0,
0,0,0,0,0,0,0,0,0,0,0,0,0,0,0,0,
0,0,0,0,0,0,0,0,0,0,0,0,0,0,0,0,
0,0,0,0,0,0,0,0,0,0,0,0,0,0,0,0,
0,0,0,0,0,0,0,0,0,0,0,0,0,0,0,0,
44,45,45,45,43,44,45,45,45,45,45,45,45,45,45,0,
44,45,45,45,43,44,45,45,45,45,45,45,45,45,45,0,
44,45,45,45,43,44,45,45,45,45,45,45,45,45,45,0,
44,45,45,45,43,44,45,45,45,45,45,45,45,45,45,0,
44,45,45,45,43,44,45,45,45,45,45,45,45,45,45,0,
44,45,45,45,43,44,45,45,45,45,45,45,45,45,45,0,
92,93,61,61,62,63,45,45,45,45,45,45,45,45,45,0,
44,45,45,45,45,45,45,45,45,45,45,45,45,45,45,0,
44,45,0,0,0,0,0,0,0,0,0,0,0,0,0,0,
44,45,0,0,0,0,0,0,0,0,0,0,0,0,0,0
</chunk>
   <chunk x="-16" y="-16" width="16" height="16">
0,0,0,0,0,0,0,0,0,0,0,0,0,0,0,0,
0,0,0,0,0,0,0,0,0,0,0,0,0,0,0,0,
0,0,0,0,0,0,0,0,0,0,0,0,0,0,0,0,
0,0,0,0,0,0,0,0,0,0,0,0,45,45,45,45,
0,0,0,0,0,0,0,0,0,0,0,0,45,45,45,45,
0,0,0,0,0,0,0,0,0,0,0,0,45,45,45,45,
0,0,0,0,0,0,0,0,0,0,0,0,45,45,45,45,
0,0,0,0,0,0,0,0,0,0,0,0,45,45,45,45,
0,0,0,0,0,0,0,0,0,0,0,0,45,45,45,45,
0,0,0,0,0,0,0,0,0,0,0,0,45,45,45,45,
0,0,0,0,0,0,0,0,0,0,0,0,45,45,45,45,
0,0,0,0,0,0,0,0,0,0,0,0,45,45,45,45,
0,0,0,0,0,0,0,0,0,0,0,0,0,0,0,0,
0,0,0,0,0,0,0,0,0,0,0,0,0,0,0,0,
0,0,0,0,0,0,0,0,0,0,0,0,0,0,0,0,
0,0,0,0,0,0,0,0,0,0,0,0,0,0,0,0
</chunk>
   <chunk x="0" y="-16" width="16" height="16">
0,0,0,0,0,0,0,0,0,0,0,0,0,0,45,43,
0,0,0,0,0,0,0,0,0,0,0,0,0,0,45,43,
0,0,0,0,0,0,0,0,0,0,0,0,0,0,45,43,
45,45,45,45,45,45,45,45,0,0,0,0,0,0,45,43,
45,45,45,45,45,45,45,45,0,0,0,0,0,0,45,43,
45,45,45,45,45,45,45,45,0,0,0,0,0,0,45,91,
45,45,45,45,45,45,45,45,0,45,45,45,0,0,45,43,
45,45,45,45,45,45,45,45,0,45,45,45,0,0,45,43,
45,45,45,45,45,45,45,45,0,45,45,45,45,45,45,43,
45,45,45,45,45,45,45,45,0,45,45,45,45,45,45,43,
45,45,45,45,45,45,45,45,0,45,45,45,0,0,45,43,
45,45,45,45,45,45,45,45,0,45,45,45,0,0,45,43,
45,45,45,45,0,0,0,0,0,0,0,0,0,0,45,43,
45,45,45,45,0,0,0,0,0,0,0,0,0,0,45,43,
45,45,45,45,0,0,0,0,0,0,0,0,0,0,45,43,
45,45,45,45,0,0,0,0,0,0,0,0,0,0,45,43
</chunk>
   <chunk x="16" y="-16" width="16" height="16">
44,45,0,0,0,0,0,0,0,0,0,0,0,0,0,0,
44,45,0,0,0,0,0,0,0,0,0,0,0,0,0,0,
44,45,0,0,0,0,0,0,0,0,0,0,0,0,0,0,
44,45,0,0,0,0,0,0,0,0,0,0,0,0,0,0,
44,45,45,45,45,45,45,45,0,0,0,0,0,0,0,0,
92,93,93,93,93,93,93,93,0,0,0,0,0,0,0,0,
44,45,45,45,45,45,45,45,0,0,0,0,0,0,0,0,
44,45,0,0,0,0,45,45,0,0,0,0,0,0,0,0,
44,45,0,0,0,0,45,45,0,0,0,0,0,0,0,0,
44,45,0,0,0,0,45,45,45,45,45,45,45,45,45,0,
44,45,0,0,0,0,45,45,45,45,45,45,45,45,45,0,
44,45,0,0,0,0,45,45,45,45,45,45,45,45,45,0,
44,45,0,0,0,0,45,45,45,45,45,45,45,45,45,0,
44,45,0,0,0,0,0,0,0,0,0,0,0,0,0,0,
44,45,0,0,0,0,0,0,0,0,0,0,0,0,0,0,
44,45,0,0,0,0,0,0,0,0,0,0,0,0,0,0
</chunk>
   <chunk x="0" y="0" width="16" height="16">
45,45,45,45,0,0,0,0,0,0,0,0,0,0,45,43,
45,45,45,45,0,0,0,0,0,0,0,0,0,0,45,43,
45,45,45,45,45,45,45,45,45,45,45,45,45,45,45,43,
45,27,28,29,29,29,29,29,29,29,29,29,29,29,29,107,
45,43,44,45,45,45,45,45,45,45,45,45,45,45,45,43,
45,43,44,45,0,0,0,0,0,0,0,0,0,0,45,43,
45,43,44,45,0,0,0,0,0,0,0,0,0,0,45,43,
45,43,44,45,0,0,0,0,0,0,0,0,0,0,45,43,
45,43,44,45,0,0,0,0,0,0,0,0,0,0,45,43,
45,43,44,45,0,0,45,45,45,45,45,45,0,0,45,43,
45,43,44,45,45,45,45,45,45,45,45,45,0,0,45,91,
45,91,92,93,93,93,93,61,61,61,45,45,0,0,45,43,
45,43,44,45,45,17,45,45,45,45,45,45,0,0,45,46,
45,43,44,45,45,0,45,45,45,45,45,45,0,0,45,46,
45,43,44,45,45,0,0,0,0,0,0,0,0,0,45,46,
45,43,44,45,45,0,0,0,0,0,0,0,0,0,45,46
</chunk>
   <chunk x="16" y="0" width="16" height="16">
44,45,0,45,45,45,45,45,45,0,0,0,0,0,0,0,
44,45,0,45,45,45,45,45,45,0,0,0,0,0,0,0,
44,45,45,45,45,45,45,45,45,0,0,0,0,0,0,0,
108,29,29,29,29,29,29,29,29,0,0,0,0,0,0,0,
44,45,45,45,45,45,45,45,45,0,0,0,0,0,0,0,
44,45,0,45,45,45,45,45,45,0,0,0,0,0,0,0,
44,45,0,0,0,0,0,0,0,0,0,0,0,0,0,0,
44,45,0,0,0,45,45,45,46,47,45,45,45,0,0,0,
44,45,0,0,0,45,45,45,46,47,45,45,45,0,0,0,
44,45,45,45,45,45,45,45,46,47,45,45,45,0,0,0,
92,61,61,61,61,61,61,61,62,63,45,45,45,0,0,0,
44,45,45,45,45,45,45,45,45,45,45,45,45,0,0,0,
47,45,0,0,0,45,45,45,45,45,45,45,45,0,0,0,
47,45,0,0,0,45,45,45,45,45,45,45,45,0,0,0,
47,45,0,0,0,45,45,45,45,45,45,45,45,0,0,0,
47,45,0,0,0,0,0,0,0,0,0,0,0,0,0,0
</chunk>
   <chunk x="0" y="16" width="16" height="16">
0,0,0,0,0,0,0,0,0,0,0,0,0,0,45,46,
0,0,0,0,0,0,0,0,0,0,0,0,0,0,45,43,
0,0,0,0,0,0,0,0,0,0,0,0,0,0,45,59,
0,0,0,0,0,0,0,0,0,0,0,0,0,0,45,45,
0,0,0,0,0,0,0,0,0,0,0,0,0,0,45,45,
0,0,0,0,0,0,0,0,0,0,0,0,0,0,45,45,
0,0,0,0,0,0,0,0,0,0,0,0,0,0,0,0,
0,0,0,0,0,0,0,0,0,0,0,0,0,0,0,0,
0,0,0,0,0,0,0,0,0,0,0,0,0,0,0,0,
0,0,0,0,0,0,0,0,0,0,0,0,0,0,0,0,
0,0,0,0,0,0,0,0,0,0,0,0,0,0,0,0,
0,0,0,0,0,0,0,0,0,0,0,0,0,0,0,0,
0,0,0,0,0,0,0,0,0,0,0,0,0,0,0,0,
0,0,0,0,0,0,0,0,0,0,0,0,0,0,0,0,
0,0,0,0,0,0,0,0,0,0,0,0,0,0,0,0,
0,0,0,0,0,0,0,0,0,0,0,0,0,0,0,0
</chunk>
   <chunk x="16" y="16" width="16" height="16">
47,45,45,45,45,45,45,45,45,45,45,45,45,45,0,0,
44,45,45,45,45,45,45,45,45,45,45,45,45,45,0,0,
60,61,61,61,61,61,61,61,61,61,61,61,61,61,0,0,
45,45,45,45,45,45,45,45,45,45,45,45,45,45,0,0,
45,45,45,45,45,45,45,45,45,45,45,45,45,45,0,0,
45,45,45,45,45,45,45,45,45,45,45,45,45,45,0,0,
0,0,0,0,0,0,0,0,0,0,0,0,0,0,0,0,
0,0,0,0,0,0,0,0,0,0,0,0,0,0,0,0,
0,0,0,0,0,0,0,0,0,0,0,0,0,0,0,0,
0,0,0,0,0,0,0,0,0,0,0,0,0,0,0,0,
0,0,0,0,0,0,0,0,0,0,0,0,0,0,0,0,
0,0,0,0,0,0,0,0,0,0,0,0,0,0,0,0,
0,0,0,0,0,0,0,0,0,0,0,0,0,0,0,0,
0,0,0,0,0,0,0,0,0,0,0,0,0,0,0,0,
0,0,0,0,0,0,0,0,0,0,0,0,0,0,0,0,
0,0,0,0,0,0,0,0,0,0,0,0,0,0,0,0
</chunk>
  </data>
 </layer>
</map>
