<?xml version="1.0" encoding="UTF-8"?>
<map version="1.10" tiledversion="1.11.2" orientation="orthogonal" renderorder="right-down" width="30" height="20" tilewidth="16" tileheight="16" infinite="1" nextlayerid="2" nextobjectid="1">
 <editorsettings>
  <export target="../../../scenes/lab.tscn" format="tscn"/>
 </editorsettings>
 <tileset firstgid="1" source="../../../../../../../../tests/tiled/test.tsx"/>
 <layer id="1" name="Tile Layer 1" width="30" height="20">
  <data encoding="csv">
   <chunk x="0" y="0" width="16" height="16">
39,24,24,24,24,24,24,24,24,24,24,40,0,0,0,0,
23,21,21,21,21,21,21,21,21,21,21,25,0,0,0,0,
23,21,21,21,21,21,21,21,21,21,21,25,0,0,0,0,
23,21,21,21,21,21,21,21,21,21,21,25,0,0,0,0,
23,21,21,21,21,21,21,21,21,21,21,25,0,0,0,0,
21,21,21,21,21,21,21,21,21,21,21,25,0,0,0,0,
23,21,21,21,21,21,21,21,21,21,21,25,0,0,0,0,
23,21,21,21,21,21,21,21,21,21,21,25,0,0,0,0,
23,21,21,21,21,21,21,21,21,21,21,25,0,0,0,0,
42,26,26,26,26,26,26,26,26,26,26,41,0,0,0,0,
0,0,0,0,0,0,0,0,0,0,0,0,0,0,0,0,
0,0,0,0,0,0,0,0,0,0,0,0,0,0,0,0,
0,0,0,0,0,0,0,0,0,0,0,0,0,0,0,0,
0,0,0,0,0,0,0,0,0,0,0,0,0,0,0,0,
0,0,0,0,0,0,0,0,0,0,0,0,0,0,0,0,
0,0,0,0,0,0,0,0,0,0,0,0,0,0,0,0
</chunk>
  </data>
 </layer>
</map>
