<?xml version="1.0" encoding="UTF-8"?>
<map version="1.10" tiledversion="1.11.2" orientation="orthogonal" renderorder="right-down" width="30" height="20" tilewidth="16" tileheight="16" infinite="1" nextlayerid="2" nextobjectid="1">
 <tileset firstgid="1" source="../../../../../../../../tests/tiled/test.tsx"/>
 <layer id="1" name="Tile Layer 1" width="30" height="20">
  <data encoding="csv">
   <chunk x="0" y="-16" width="16" height="16">
13,11,97,98,99,100,101,102,10,14,10,0,0,0,0,0,
10,11,113,114,115,116,117,118,11,14,11,0,0,0,0,0,
10,11,129,130,131,132,133,134,12,11,11,0,0,0,0,0,
13,13,12,12,12,148,149,150,10,10,10,0,0,0,0,0,
11,10,15,14,14,164,165,166,11,11,13,0,0,0,0,0,
11,10,10,14,10,180,181,182,12,16,16,0,0,0,0,0,
16,11,16,16,10,8,1,9,12,11,13,0,0,0,0,0,
15,15,15,10,13,8,1,9,10,11,15,0,0,0,0,0,
16,13,13,13,13,8,1,9,10,11,15,0,0,0,0,0,
2,2,2,2,2,6,1,7,2,2,2,0,0,0,0,0,
1,1,1,1,1,1,1,1,1,1,1,0,0,0,0,0,
3,3,3,3,3,3,3,3,3,3,3,0,0,0,0,0,
0,0,0,0,0,0,0,0,0,0,0,0,0,0,0,0,
0,0,0,0,0,0,0,0,0,0,0,0,0,0,0,0,
0,0,0,0,0,0,0,0,0,0,0,0,0,0,0,0,
0,0,0,0,0,0,0,0,0,0,0,0,0,0,0,0
</chunk>
   <chunk x="48" y="-16" width="16" height="16">
0,0,0,0,0,0,0,0,0,0,0,0,0,0,0,0,
0,0,0,0,0,0,0,0,0,0,0,0,0,0,0,0,
0,0,0,0,0,0,0,0,0,0,0,0,0,0,0,0,
0,0,0,0,0,0,0,0,0,0,0,0,0,0,0,0,
0,0,0,0,0,0,0,0,0,0,0,0,0,0,0,0,
0,0,0,0,0,0,0,0,0,0,0,0,0,0,0,0,
0,0,13,13,14,14,14,11,15,10,10,14,0,0,0,0,
0,0,14,15,15,10,10,11,10,10,12,13,0,0,0,0,
0,0,15,11,12,12,12,11,15,12,10,10,0,0,0,0,
0,0,13,13,12,14,11,11,11,10,10,11,0,0,0,0,
0,0,10,10,11,12,14,11,10,10,10,10,0,0,0,0,
0,0,10,10,16,16,14,10,11,15,15,10,0,0,0,0,
0,0,12,16,16,13,10,10,12,11,15,13,0,0,0,0,
0,0,10,10,16,12,13,16,15,15,15,13,0,0,0,0,
0,0,15,15,15,15,13,14,15,15,12,12,0,0,0,0,
0,0,13,15,10,10,14,12,13,12,13,12,0,0,0,0
</chunk>
  </data>
 </layer>
</map>
