<?xml version="1.0" encoding="UTF-8"?>
<map version="1.10" tiledversion="1.11.2" orientation="orthogonal" renderorder="right-down" width="30" height="20" tilewidth="16" tileheight="16" infinite="1" nextlayerid="2" nextobjectid="1">
 <editorsettings>
  <export target="../../../scenes/home.tscn" format="tscn"/>
 </editorsettings>
 <tileset firstgid="1" source="../../../../../../../../tests/tiled/test.tsx"/>
 <layer id="1" name="Tile Layer 1" width="30" height="20">
  <data encoding="csv">
   <chunk x="0" y="0" width="16" height="16">
39,56,24,56,24,103,88,88,88,88,103,88,88,88,88,104,
55,21,22,21,22,87,20,20,20,20,87,20,20,20,20,89,
23,22,21,22,21,87,20,20,20,20,87,20,20,20,20,89,
55,21,22,21,22,87,20,20,20,20,87,20,20,20,20,89,
23,22,21,22,21,106,90,90,20,90,87,20,20,20,20,89,
87,20,20,20,20,20,89,33,33,33,87,20,20,20,20,89,
87,20,20,20,20,20,89,49,49,49,20,20,20,20,20,89,
87,20,20,20,20,20,89,65,65,65,106,90,90,90,90,105,
87,20,20,20,20,20,20,33,33,33,33,33,22,22,22,22,
87,20,20,20,20,20,89,49,49,49,49,49,22,22,22,22,
106,90,90,90,90,90,105,53,37,69,53,37,58,58,58,58,
0,0,0,0,0,0,0,0,0,0,0,0,0,0,0,0,
0,0,0,0,0,0,0,0,0,0,0,0,0,0,0,0,
0,0,0,0,0,0,0,0,0,0,0,0,0,0,0,0,
0,0,0,0,0,0,0,0,0,0,0,0,0,0,0,0,
0,0,0,0,0,0,0,0,0,0,0,0,0,0,0,0
</chunk>
  </data>
 </layer>
</map>
